X: 163
M: 6/8
L: 1/8
K: D
|:\
|:\
agf gfe | dBe Tc2A | dAd eAe | fAf e3 |\
agf gfe | dAe Tc2A | dcB AGF | EDC D3 |]

